X:17
T:Go to the windward my love
Z:Jack Campin, http://www.campin.me.uk/
F:Jack Campin's Nine-Note Tunebook
% last edit 03-02-2013
S:Blaikie MS (NLS MS.1578) p12, Blaikie #30
M:C
L:1/8
Q:1/4=80
K:GDor
z2 |G2 G>F D2 D>D|B>d c>A F4      |G2 GA B>A Bc|d4 z2
B>c|dd d>c c2 cc |BB  BG  A2 A/B/c|d2 GF D2  F2|G4 z2|]

